icons/out-of-office.svg

<svg width="24" height="24" viewBox="0 0 24 24" fill="none" xmlns="http://www.w3.org/2000/svg">
<path fill-rule="evenodd" clip-rule="evenodd" d="M14.5969 2.19772C14.8505 2.38641 15 2.6839 15 3.00001V15C15 15.5523 14.5523 16 14 16C13.4477 16 13 15.5523 13 15V4.34404L5 6.74404V20H11.5C12.0523 20 12.5 20.4477 12.5 21C12.5 21.5523 12.0523 22 11.5 22H4C3.44772 22 3 21.5523 3 21V6.00001C3 5.5584 3.28967 5.16908 3.71265 5.04218L13.7127 2.04218C14.0154 1.95135 14.3433 2.00902 14.5969 2.19772Z" fill="#9AA1B4"/>
<path fill-rule="evenodd" clip-rule="evenodd" d="M13.1058 4.55301C13.3528 4.05903 13.9535 3.8588 14.4474 4.10579L20.4474 7.10579C20.7862 7.27518 21.0002 7.62145 21.0002 8.00022V13.0002C21.0002 13.5525 20.5525 14.0002 20.0002 14.0002C19.4479 14.0002 19.0002 13.5525 19.0002 13.0002V8.61825L13.553 5.89465C13.059 5.64766 12.8588 5.04698 13.1058 4.55301Z" fill="#9AA1B4"/>
<path fill-rule="evenodd" clip-rule="evenodd" d="M7 13C7 12.4477 7.44772 12 8 12H10C10.5523 12 11 12.4477 11 13C11 13.5523 10.5523 14 10 14H8C7.44772 14 7 13.5523 7 13Z" fill="#9AA1B4"/>
<path fill-rule="evenodd" clip-rule="evenodd" d="M7 17C7 16.4477 7.44772 16 8 16H10C10.5523 16 11 16.4477 11 17C11 17.5523 10.5523 18 10 18H8C7.44772 18 7 17.5523 7 17Z" fill="#9AA1B4"/>
<path fill-rule="evenodd" clip-rule="evenodd" d="M7 9C7 8.44772 7.44772 8 8 8H10C10.5523 8 11 8.44772 11 9C11 9.55228 10.5523 10 10 10H8C7.44772 10 7 9.55228 7 9Z" fill="#9AA1B4"/>
<path fill-rule="evenodd" clip-rule="evenodd" d="M20.5 19C20.5 19.5523 20.0523 20 19.5 20H15C14.4477 20 14 19.5523 14 19C14 18.4477 14.4477 18 15 18H19.5C20.0523 18 20.5 18.4477 20.5 19Z" fill="#9AA1B4"/>
<path fill-rule="evenodd" clip-rule="evenodd" d="M18.0668 21.9013C18.4133 22.0678 18.8245 22.021 19.1247 21.7809L21.6247 19.7809C21.8619 19.5911 22 19.3038 22 19C22 18.6962 21.8619 18.4089 21.6247 18.2191L19.1247 16.2191C18.8245 15.979 18.4133 15.9322 18.0668 16.0987C17.7203 16.2652 17.5 16.6156 17.5 17V21C17.5 21.3844 17.7203 21.7348 18.0668 21.9013Z" fill="#9AA1B4"/>
</svg>

<?xml version="1.0" encoding="utf-8"?>
<!-- Generator: Adobe Illustrator 22.1.0, SVG Export Plug-In . SVG Version: 6.00 Build 0)  -->
<svg version="1.1" id="Layer_1" xmlns="http://www.w3.org/2000/svg" xmlns:xlink="http://www.w3.org/1999/xlink" x="0px" y="0px"
	 viewBox="0 0 24 24" style="enable-background:new 0 0 24 24;" xml:space="preserve">
<style type="text/css">
	.st0{fill:#9AA1B4;}
</style>
<path class="st0" d="M14.6,2.2C14.9,2.4,15,2.7,15,3v12c0,0.6-0.4,1-1,1s-1-0.4-1-1V4.3L5,6.7V20h6.5c0.6,0,1,0.4,1,1s-0.4,1-1,1H4
	c-0.6,0-1-0.4-1-1V6c0-0.4,0.3-0.8,0.7-1l10-3C14,2,14.3,2,14.6,2.2z"/>
<path class="st0" d="M13.1,4.6c0.2-0.5,0.8-0.7,1.3-0.4l6,3C20.8,7.3,21,7.6,21,8v5c0,0.6-0.4,1-1,1s-1-0.4-1-1V8.6l-5.4-2.7
	C13.1,5.6,12.9,5,13.1,4.6z"/>
<path class="st0" d="M7,13c0-0.6,0.4-1,1-1h2c0.6,0,1,0.4,1,1s-0.4,1-1,1H8C7.4,14,7,13.6,7,13z"/>
<path class="st0" d="M7,17c0-0.6,0.4-1,1-1h2c0.6,0,1,0.4,1,1s-0.4,1-1,1H8C7.4,18,7,17.6,7,17z"/>
<path class="st0" d="M7,9c0-0.6,0.4-1,1-1h2c0.6,0,1,0.4,1,1s-0.4,1-1,1H8C7.4,10,7,9.6,7,9z"/>
<path class="st0" d="M21.6,18.2l-2.5-2c-0.3-0.2-0.7-0.3-1.1-0.1c-0.3,0.2-0.6,0.5-0.6,0.9v1H15c-0.6,0-1,0.4-1,1s0.4,1,1,1h2.5v1
	c0,0.4,0.2,0.7,0.6,0.9c0.3,0.2,0.8,0.1,1.1-0.1l2.5-2c0.2-0.2,0.4-0.5,0.4-0.8S21.9,18.4,21.6,18.2z"/>
</svg>
